X: 10
T: Within A Mile Of Dublin
Z: leprecawn
S: https://thesession.org/tunes/125#setting52335
R: reel
M: 4/4
L: 1/8
K: Gmaj
FG|:ADDE FEFG|ADDD c2Bc|ADDE FEFG|ABcB AGFG:|
Addc AGFG|Adde fded|Addc AGFG|ABcA G2 FG|
Addc AGFG|Adde fefg|af (3gfe (3fed e^c|dcAF G2 ||

